brandFactory_export/1.Light/Ajustes web _1Light.svg

<?xml version="1.0" encoding="UTF-8"?>
<svg width="24px" height="24px" viewBox="0 0 24 24" version="1.1" xmlns="http://www.w3.org/2000/svg" xmlns:xlink="http://www.w3.org/1999/xlink">
    <title>1.Light/Ajustes web _1Light</title>
    <g id="Symbols" stroke="none" stroke-width="1" fill="none" fill-rule="evenodd">
        <g id="1.Light/Ajustes-web-_1Light" fill="#5CB615" fill-rule="nonzero">
            <path d="M22.1176471,19.789916 C22.4033613,19.789916 22.6386555,19.5647059 22.6386555,19.2857143 L22.6386555,7.85042017 L0.98487395,7.85042017 L0.98487395,19.2857143 C0.98487395,19.5647059 1.21680672,19.789916 1.50588235,19.789916 L22.1176471,19.789916 Z M1.50588235,3.98487395 C1.22016807,3.98487395 0.98487395,4.21344538 0.98487395,4.48907563 L0.98487395,6.89915966 L22.6386555,6.89915966 L22.6386555,4.48907563 C22.6386555,4.21008403 22.4067227,3.98487395 22.1176471,3.98487395 L1.50588235,3.98487395 Z M22.1176471,3.0302521 C22.9478992,3.0302521 23.6235294,3.68571429 23.6235294,4.48907563 L23.6235294,19.2890756 C23.6235294,20.092437 22.9478992,20.7478992 22.1176471,20.7478992 L1.50588235,20.7478992 C0.675630252,20.7478992 0,20.092437 0,19.2890756 L0,4.48907563 C0,3.68571429 0.675630252,3.0302521 1.50588235,3.0302521 L22.1176471,3.0302521 Z M5.02857143,6.17647059 C4.6487395,6.17647059 4.34285714,5.87731092 4.34285714,5.51428571 C4.34285714,5.14789916 4.6487395,4.8487395 5.02857143,4.8487395 C5.40840336,4.8487395 5.71428571,5.14453782 5.71428571,5.51428571 C5.71428571,5.87731092 5.40840336,6.17647059 5.02857143,6.17647059 Z M7.08571429,6.17647059 C6.70588235,6.17647059 6.40336134,5.87731092 6.40336134,5.51428571 C6.40336134,5.14789916 6.7092437,4.8487395 7.08571429,4.8487395 C7.46554622,4.8487395 7.77142857,5.14453782 7.77142857,5.51428571 C7.76806723,5.87731092 7.46554622,6.17647059 7.08571429,6.17647059 Z M2.97478992,6.17647059 C2.59495798,6.17647059 2.28907563,5.87731092 2.28907563,5.51428571 C2.28907563,5.14789916 2.59495798,4.8487395 2.97478992,4.8487395 C3.35462185,4.8487395 3.65714286,5.14453782 3.65714286,5.51428571 C3.65714286,5.87731092 3.35462185,6.17647059 2.97478992,6.17647059 L2.97478992,6.17647059 Z M11.7546218,15.1142857 C12.6689076,15.1142857 13.0957983,14.7008403 13.0957983,13.8134454 C13.0957983,12.9260504 12.6689076,12.512605 11.7546218,12.512605 C10.8403361,12.512605 10.4134454,12.9260504 10.4134454,13.8134454 C10.4134454,14.7008403 10.8369748,15.1142857 11.7546218,15.1142857 Z M11.7546218,11.5579832 C13.2134454,11.5579832 14.0806723,12.4016807 14.0806723,13.8134454 C14.0806723,15.2252101 13.210084,16.0689076 11.7546218,16.0689076 C10.2957983,16.0689076 9.42857143,15.2252101 9.42857143,13.8134454 C9.42857143,12.4016807 10.2957983,11.5579832 11.7546218,11.5579832 L11.7546218,11.5579832 Z M15.0890756,14.1361345 L15.9731092,14.1361345 L15.9462185,13.4672269 L15.0890756,13.4907563 C14.8470588,13.4907563 14.6420168,13.3193277 14.6016807,13.087395 C14.5478992,12.7747899 14.4605042,12.492437 14.3361345,12.2504202 C14.2420168,12.0655462 14.2789916,11.8470588 14.4302521,11.6991597 L15.0823529,11.0672269 L14.5579832,10.5865546 L13.9327731,11.2184874 C13.7848739,11.3630252 13.5563025,11.4 13.3680672,11.3092437 C13.102521,11.1848739 12.8268908,11.1008403 12.5008403,11.0504202 C12.2621849,11.0134454 12.087395,10.8151261 12.087395,10.5798319 L12.087395,9.72605042 L11.394958,9.74957983 L11.4184874,10.5798319 C11.4184874,10.8151261 11.2436975,11.0134454 11.005042,11.0504202 C10.6823529,11.1008403 10.3932773,11.1882353 10.1411765,11.3092437 C9.94957983,11.4033613 9.72436975,11.3630252 9.57310924,11.2184874 L8.9210084,10.5865546 L8.42352941,11.0941176 L9.07563025,11.6991597 C9.23361345,11.8504202 9.26722689,12.0857143 9.15630252,12.2705882 C9.05882353,12.4386555 8.95798319,12.7647059 8.90420168,13.087395 C8.86722689,13.3193277 8.65882353,13.487395 8.41680672,13.487395 L7.53613445,13.487395 L7.55966387,14.1563025 L8.41680672,14.1327731 C8.65882353,14.1327731 8.86386555,14.3042017 8.90420168,14.5327731 C8.95798319,14.8554622 9.05882353,15.1848739 9.15630252,15.3495798 C9.26722689,15.5378151 9.23361345,15.7697479 9.07563025,15.9210084 L8.42352941,16.5529412 L8.94789916,17.0336134 L9.57310924,16.4016807 C9.66722689,16.3109244 9.79495798,16.2605042 9.92268908,16.2605042 C9.99663866,16.2605042 10.0705882,16.2773109 10.1411765,16.3109244 C10.389916,16.4319328 10.6789916,16.5193277 11.005042,16.5697479 C11.2436975,16.6067227 11.4184874,16.805042 11.4184874,17.0403361 L11.4184874,17.8941176 L12.0840336,17.8705882 L12.0840336,17.0403361 C12.0840336,16.805042 12.2588235,16.6067227 12.497479,16.5697479 C12.8235294,16.5193277 13.0991597,16.4352941 13.3647059,16.3109244 C13.5529412,16.2235294 13.7815126,16.2605042 13.9294118,16.4016807 L14.5815126,17.0336134 L15.0789916,16.5260504 L14.4268908,15.9210084 C14.2756303,15.7764706 14.2420168,15.5546218 14.3327731,15.3697479 C14.4571429,15.1277311 14.5445378,14.8453782 14.5983193,14.5327731 C14.6386555,14.307563 14.8470588,14.1361345 15.0890756,14.1361345 L15.0890756,14.1361345 Z M15.9731092,12.5361345 C16.5042017,12.5361345 16.9344538,12.9529412 16.9344538,13.4672269 L16.9344538,14.1630252 C16.9344538,14.6773109 16.5042017,15.0941176 15.9731092,15.0941176 L15.4890756,15.0941176 C15.4521008,15.2285714 15.4117647,15.3563025 15.3613445,15.4840336 L15.7781513,15.887395 C15.9630252,16.0655462 16.0605042,16.3008403 16.0605042,16.5495798 C16.0605042,16.7983193 15.9596639,17.0336134 15.7781513,17.2117647 L15.2537815,17.7193277 C14.8773109,18.0857143 14.2655462,18.0857143 13.8857143,17.7193277 L13.4689076,17.3159664 C13.3411765,17.3630252 13.2067227,17.4033613 13.0689076,17.4403361 L13.0689076,17.907563 C13.0689076,18.4218487 12.6386555,18.8386555 12.107563,18.8386555 L11.394958,18.8386555 C10.8672269,18.8386555 10.4336134,18.4218487 10.4336134,17.907563 L10.4336134,17.4403361 C10.2957983,17.4067227 10.1613445,17.3663866 10.0336134,17.3193277 L9.61680672,17.7226891 C9.43529412,17.9008403 9.19327731,17.9983193 8.93445378,17.9983193 L8.93109244,17.9983193 C8.67226891,17.9983193 8.4302521,17.9008403 8.2487395,17.7226891 L7.72436975,17.2151261 C7.54285714,17.0369748 7.44201681,16.8016807 7.44201681,16.5529412 C7.44201681,16.3042017 7.54285714,16.0689076 7.72436975,15.8907563 L8.13781513,15.4907563 C8.08739496,15.3596639 8.04705882,15.2218487 8.01680672,15.1008403 L7.53613445,15.1008403 C7.00840336,15.1008403 6.57478992,14.6840336 6.57478992,14.1697479 L6.57478992,13.4739496 C6.57478992,12.9596639 7.00504202,12.5428571 7.53613445,12.5428571 L8.01680672,12.5428571 C8.04705882,12.4218487 8.08739496,12.2840336 8.13781513,12.1529412 L7.72436975,11.7529412 C7.54285714,11.5747899 7.44201681,11.3394958 7.44201681,11.0907563 C7.44201681,10.8420168 7.54285714,10.6067227 7.72436975,10.4285714 L8.2487395,9.9210084 C8.4302521,9.74285714 8.67226891,9.64537815 8.93109244,9.64537815 L8.93445378,9.64537815 C9.19327731,9.64537815 9.43529412,9.74285714 9.61680672,9.9210084 L10.0336134,10.3243697 C10.1613445,10.2773109 10.2957983,10.2369748 10.4336134,10.2033613 L10.4336134,9.73613445 C10.4336134,9.22184874 10.8638655,8.80504202 11.394958,8.80504202 L12.1109244,8.80504202 C12.6420168,8.80504202 13.0722689,9.22184874 13.0722689,9.73613445 L13.0722689,10.2033613 C13.210084,10.2369748 13.3445378,10.2773109 13.4722689,10.3277311 L13.8890756,9.92436975 C14.2655462,9.55798319 14.8773109,9.55798319 15.2571429,9.92436975 L15.7815126,10.4319328 C15.9663866,10.610084 16.0638655,10.8453782 16.0638655,11.0941176 C16.0638655,11.3428571 15.9630252,11.5781513 15.7815126,11.7563025 L15.3647059,12.1596639 C15.4117647,12.2840336 15.4554622,12.4151261 15.492437,12.5495798 L15.9731092,12.5495798 L15.9731092,12.5361345 Z" id="Ajustes-web-_1Light"></path>
        </g>
    </g>
</svg>

<svg width="24" height="24" viewBox="0 0 24 24" xmlns="http://www.w3.org/2000/svg"><path d="M22.118 19.79a.514.514 0 00.52-.504V7.85H.986v11.436c0 .279.232.504.52.504h20.613zM1.506 3.985a.516.516 0 00-.521.504V6.9h21.654V4.49a.512.512 0 00-.521-.504H1.506zm20.612-.955c.83 0 1.506.656 1.506 1.46v14.8c0 .802-.676 1.458-1.506 1.458H1.506c-.83 0-1.506-.656-1.506-1.459V4.49C0 3.686.676 3.03 1.506 3.03h20.612zM5.028 6.176c-.38 0-.685-.299-.685-.662 0-.366.306-.665.686-.665.38 0 .685.296.685.665a.675.675 0 01-.685.662zm2.058 0c-.38 0-.683-.299-.683-.662 0-.366.306-.665.683-.665.38 0 .685.296.685.665a.677.677 0 01-.685.662zm-4.111 0c-.38 0-.686-.299-.686-.662 0-.366.306-.665.686-.665a.67.67 0 01.682.665.672.672 0 01-.682.662zm8.78 8.938c.914 0 1.34-.413 1.34-1.3 0-.888-.426-1.301-1.34-1.301-.915 0-1.342.413-1.342 1.3 0 .888.424 1.301 1.342 1.301zm0-3.556c1.458 0 2.326.844 2.326 2.255 0 1.412-.87 2.256-2.326 2.256-1.46 0-2.326-.844-2.326-2.256 0-1.411.867-2.255 2.326-2.255zm3.334 2.578h.884l-.027-.669-.857.024a.492.492 0 01-.487-.404 2.912 2.912 0 00-.266-.837.467.467 0 01.094-.55l.652-.633-.524-.48-.625.631a.502.502 0 01-.565.091 3.11 3.11 0 00-.867-.259.48.48 0 01-.414-.47v-.854l-.692.024.023.83a.48.48 0 01-.413.47c-.323.05-.612.138-.864.26a.501.501 0 01-.568-.092l-.652-.631-.497.507.652.605a.46.46 0 01.08.572c-.097.168-.198.494-.252.816a.486.486 0 01-.487.4h-.88l.023.67.857-.024c.242 0 .447.171.487.4.054.322.155.652.252.817a.46.46 0 01-.08.571l-.652.632.524.48.625-.631a.508.508 0 01.568-.091c.249.12.538.208.864.259a.48.48 0 01.413.47v.854l.666-.023v-.83a.48.48 0 01.413-.471 3.11 3.11 0 00.868-.26.513.513 0 01.564.092l.653.632.497-.508-.652-.605a.47.47 0 01-.094-.551c.124-.242.212-.525.265-.837a.496.496 0 01.491-.397zm.884-1.6c.531 0 .961.417.961.931v.696c0 .514-.43.931-.96.931h-.485a3.777 3.777 0 01-.128.39l.417.403a.91.91 0 01.283.663c0 .248-.101.484-.283.662l-.524.507a.989.989 0 01-1.368 0l-.417-.403a4.635 4.635 0 01-.4.124v.468c0 .514-.43.93-.961.93h-.713c-.528 0-.961-.416-.961-.93v-.468a3.69 3.69 0 01-.4-.12l-.417.403a.966.966 0 01-.683.275h-.003a.966.966 0 01-.682-.275l-.525-.508a.924.924 0 01-.282-.662c0-.249.1-.484.282-.662l.414-.4a3.414 3.414 0 01-.121-.39h-.48c-.529 0-.962-.417-.962-.931v-.696c0-.514.43-.931.961-.931h.48c.031-.121.071-.259.122-.39l-.414-.4a.924.924 0 01-.282-.662c0-.249.1-.484.282-.662l.525-.508a.966.966 0 01.682-.276h.003c.26 0 .501.098.683.276l.417.403a3.69 3.69 0 01.4-.12v-.468c0-.514.43-.931.961-.931h.716c.531 0 .961.417.961.931v.467c.138.034.273.074.4.125l.417-.404a.989.989 0 011.368 0l.525.508a.91.91 0 01.282.662c0 .249-.101.484-.282.662l-.417.404c.047.124.09.255.127.39h.481v-.014z" fill="#5CB615" fill-rule="nonzero"/></svg>
